src/lib/packages/icons/src/assets/line/comment-text-plus.svg

<svg width="24" height="24" viewBox="0 0 24 24" fill="none" xmlns="http://www.w3.org/2000/svg">
<path d="M12.75 20.0031C12.75 20.4171 12.414 20.7531 12 20.7531C10.813 20.7531 9.67496 20.592 8.60596 20.274C7.24196 21.461 5.36393 21.751 3.85693 21.751C3.71193 21.751 3.57111 21.749 3.43311 21.744C2.93311 21.732 2.49497 21.412 2.32397 20.929C2.15197 20.443 2.29408 19.914 2.68408 19.582C3.61608 18.83 3.98892 17.998 4.13892 17.427C2.90192 15.948 2.24902 14.081 2.24902 12.002C2.24902 6.84895 6.25902 3.25098 11.999 3.25098C17.271 3.25098 21.1641 6.33197 21.6851 10.918C21.7271 11.256 21.749 11.624 21.749 12.002C21.749 12.416 21.413 12.752 20.999 12.752C20.585 12.752 20.249 12.416 20.249 12.002C20.249 11.694 20.2311 11.385 20.1951 11.095C19.7631 7.29697 16.47 4.75 11.999 4.75C7.14202 4.75 3.74902 7.73198 3.74902 12.001C3.74902 13.837 4.354 15.463 5.5 16.703C5.655 16.871 5.72594 17.101 5.68994 17.328C5.52194 18.399 4.99388 19.412 4.18188 20.243C5.34188 20.201 6.90206 19.934 7.86206 18.91C8.06306 18.694 8.37605 18.617 8.65405 18.714C9.68905 19.072 10.814 19.2531 11.999 19.2531C12.414 19.2531 12.75 19.5891 12.75 20.0031ZM21 16.75H19.25V15C19.25 14.586 18.914 14.25 18.5 14.25C18.086 14.25 17.75 14.586 17.75 15V16.75H16C15.586 16.75 15.25 17.086 15.25 17.5C15.25 17.914 15.586 18.25 16 18.25H17.75V20C17.75 20.414 18.086 20.75 18.5 20.75C18.914 20.75 19.25 20.414 19.25 20V18.25H21C21.414 18.25 21.75 17.914 21.75 17.5C21.75 17.086 21.414 16.75 21 16.75ZM8 9.25C7.586 9.25 7.25 9.586 7.25 10C7.25 10.414 7.586 10.75 8 10.75H16C16.414 10.75 16.75 10.414 16.75 10C16.75 9.586 16.414 9.25 16 9.25H8ZM13 13.25H8C7.586 13.25 7.25 13.586 7.25 14C7.25 14.414 7.586 14.75 8 14.75H13C13.414 14.75 13.75 14.414 13.75 14C13.75 13.586 13.414 13.25 13 13.25Z" fill="currentColor"/>
</svg>

<svg xmlns="http://www.w3.org/2000/svg" width="24" height="24" fill="none"><path fill="currentColor" d="M12.75 20.003a.75.75 0 0 1-.75.75c-1.187 0-2.325-.161-3.394-.479-1.364 1.187-3.242 1.477-4.75 1.477a11.7 11.7 0 0 1-.423-.007 1.207 1.207 0 0 1-1.109-.815 1.221 1.221 0 0 1 .36-1.347c.932-.752 1.305-1.584 1.455-2.155-1.237-1.479-1.89-3.346-1.89-5.425 0-5.153 4.01-8.751 9.75-8.751 5.272 0 9.165 3.081 9.686 7.667.042.338.064.706.064 1.084a.75.75 0 0 1-1.5 0c0-.308-.018-.617-.054-.907C19.763 7.297 16.47 4.75 12 4.75c-4.857 0-8.25 2.982-8.25 7.251 0 1.836.605 3.462 1.751 4.702a.749.749 0 0 1 .19.625c-.168 1.071-.696 2.084-1.508 2.915 1.16-.042 2.72-.309 3.68-1.333a.749.749 0 0 1 .792-.196c1.035.358 2.16.54 3.345.54a.75.75 0 0 1 .751.75ZM21 16.75h-1.75V15a.75.75 0 0 0-1.5 0v1.75H16a.75.75 0 0 0 0 1.5h1.75V20a.75.75 0 0 0 1.5 0v-1.75H21a.75.75 0 0 0 0-1.5ZM8 9.25a.75.75 0 0 0 0 1.5h8a.75.75 0 0 0 0-1.5H8Zm5 4H8a.75.75 0 0 0 0 1.5h5a.75.75 0 0 0 0-1.5Z"/></svg>
